X: 26084
T: McDonagh's
R: reel
M: 4/4
K: Eminor
B2Ac BEED|~E2BE ~E2Bd|BAFA D3E|EDAD FDFA|
BdAc BEED|~E2BE ~E2Bd|BAGF GAB^c|1 dBAG FDFA:|2 dBAG FAB^c||
[K:D]|:d2ef gfeg|fB~B2 fB~B2|d2ef gfed|ceae ceae|
d2ef gfeg|fB~B2 fbba|afge fdec|dBAG FDFA||

